X: 43184
T: Wise Maid, The
R: reel
M: 4/4
K: Dmajor
|:DE|F2 F/F/F FEDE|FAAB AFED|d2 e/f/g fdec|dBAd BE E2|
F2 F/F/F FEDE|FAAB AFED|d2 e/f/g fdec|dBAG FD:|
|:FA|d2 AG FDFA|dfaf gfeg|fAdf eAce|dfed cA A2|
BDGB ADFA|dfaf gfed|B/c/d ce dBAG|FGEF D2:|

